src/components/00-materials/images-raw/Accident.svg

<svg width="96" height="96" viewBox="0 0 96 96" fill="none" xmlns="http://www.w3.org/2000/svg">
<path d="M70.9784 69C70.9784 72.87 60.6684 76 47.9784 76C35.2884 76 24.9784 72.87 24.9784 69M41.9784 16.5L24.9584 69L41.9784 16.5ZM70.9984 69L53.9784 16.5L70.9984 69Z" stroke="#00008F" stroke-width="2" stroke-linecap="round" stroke-linejoin="round"/>
<path d="M47.9784 19C51.2921 19 53.9784 17.8807 53.9784 16.5C53.9784 15.1193 51.2921 14 47.9784 14C44.6647 14 41.9784 15.1193 41.9784 16.5C41.9784 17.8807 44.6647 19 47.9784 19Z" stroke="#00008F" stroke-width="2" stroke-linecap="round" stroke-linejoin="round"/>
<path d="M27.5284 61H22.8884C22.3124 61.0003 21.7487 61.1665 21.2646 61.4786C20.7805 61.7907 20.3965 62.2355 20.1584 62.76L13.1584 79.22C13.0303 79.5224 12.9787 79.8517 13.008 80.1788C13.0374 80.506 13.1468 80.8208 13.3267 81.0956C13.5066 81.3704 13.7514 81.5966 14.0395 81.7544C14.3275 81.9121 14.65 81.9965 14.9784 82H80.9784C81.3085 81.9997 81.6334 81.9178 81.9242 81.7614C82.2149 81.605 82.4624 81.3791 82.6446 81.1039C82.8268 80.8286 82.938 80.5125 82.9683 80.1838C82.9987 79.8551 82.9472 79.524 82.8184 79.22L75.8184 62.76C75.5789 62.2324 75.1918 61.7855 74.7038 61.4731C74.2158 61.1608 73.6478 60.9965 73.0684 61H68.3984M63.7984 46.79C61.2984 49.25 55.1584 51 47.9784 51C40.7984 51 34.6484 49.26 32.1584 46.79M58.3584 30C56.2784 31.78 52.3584 33 47.9784 33C43.5984 33 39.6784 31.8 37.5984 30" stroke="#00008F" stroke-width="2" stroke-linecap="round" stroke-linejoin="round"/>
<path d="M68.3684 60.91C65.0884 63.89 57.1984 66 47.9784 66C38.7584 66 30.8684 63.89 27.5884 60.91" stroke="#00008F" stroke-width="2" stroke-linecap="round" stroke-linejoin="round"/>
</svg>

<svg width="96" height="96" viewBox="0 0 96 96" fill="none" xmlns="http://www.w3.org/2000/svg"><path d="M70.978 69c0 3.87-10.31 7-23 7s-23-3.13-23-7m17-52.5L24.958 69l17.02-52.5zM70.998 69l-17.02-52.5L70.998 69zM47.978 19c3.314 0 6-1.12 6-2.5s-2.686-2.5-6-2.5c-3.313 0-6 1.12-6 2.5s2.687 2.5 6 2.5z" stroke="#00008F" stroke-width="2" stroke-linecap="round" stroke-linejoin="round"/><path d="M27.528 61h-4.64a3 3 0 00-2.73 1.76l-7 16.46a2 2 0 001.82 2.78h66a2 2 0 001.84-2.78l-7-16.46a3 3 0 00-2.75-1.76h-4.67m-4.6-14.21c-2.5 2.46-8.64 4.21-15.82 4.21s-13.33-1.74-15.82-4.21M58.358 30c-2.08 1.78-6 3-10.38 3-4.38 0-8.3-1.2-10.38-3" stroke="#00008F" stroke-width="2" stroke-linecap="round" stroke-linejoin="round"/><path d="M68.368 60.91c-3.28 2.98-11.17 5.09-20.39 5.09s-17.11-2.11-20.39-5.09" stroke="#00008F" stroke-width="2" stroke-linecap="round" stroke-linejoin="round"/></svg>
